tools/download-figma-icons/icons/solid/townhall.svg

<svg width="24" height="24" viewBox="0 0 24 24" fill="none" xmlns="http://www.w3.org/2000/svg">
<path fill-rule="evenodd" clip-rule="evenodd" d="M4 4C4 3.44772 4.44772 3 5 3H19C19.5523 3 20 3.44772 20 4V6H21H22C22.5523 6 23 6.44772 23 7C23 7.55228 22.5523 8 22 8V20C22.5523 20 23 20.4477 23 21C23 21.5523 22.5523 22 22 22H21H3H2C1.44772 22 1 21.5523 1 21C1 20.4477 1.44772 20 2 20V8C1.44772 8 1 7.55228 1 7C1 6.44772 1.44772 6 2 6H3H4V4ZM18 5V6H6V5H18ZM9 14C9 13.4477 8.55228 13 8 13C7.44772 13 7 13.4477 7 14V19C7 19.5523 7.44772 20 8 20C8.55228 20 9 19.5523 9 19V14ZM13 14C13 13.4477 12.5523 13 12 13C11.4477 13 11 13.4477 11 14V19C11 19.5523 11.4477 20 12 20C12.5523 20 13 19.5523 13 19V14ZM17 14C17 13.4477 16.5523 13 16 13C15.4477 13 15 13.4477 15 14V19C15 19.5523 15.4477 20 16 20C16.5523 20 17 19.5523 17 19V14Z" fill="black"/>
</svg>

<svg xmlns="http://www.w3.org/2000/svg" width="24" height="24" fill="none" viewBox="0 0 24 24"><path fill="currentColor" fill-rule="evenodd" d="M4 4a1 1 0 0 1 1-1h14a1 1 0 0 1 1 1v2h2a1 1 0 1 1 0 2v12a1 1 0 1 1 0 2H2a1 1 0 1 1 0-2V8a1 1 0 0 1 0-2h2zm14 1v1H6V5zm-9 9a1 1 0 1 0-2 0v5a1 1 0 1 0 2 0zm4 0a1 1 0 1 0-2 0v5a1 1 0 1 0 2 0zm4 0a1 1 0 1 0-2 0v5a1 1 0 1 0 2 0z" clip-rule="evenodd"/></svg>
